!!!!SEGMENT: pl-wnifc--13846--049_anonim--piesni-polskie-i-ruskie-ludu-galicyjskiego-49-wysoko-daleko-listek-na-jaworze.krn
!!!kernsource:
!!!cenid: 18xx:3271
!!!COM: Anonim
!!!COM-rismID: pe30004985
!!!CDT:
!!!CNT:
!!!GTL: Pieśni polskie i ruskie ludu galicyjskiego
!!!OTL: 49. Wysoko daleko listek na jaworze
!!!OMV: 049
!!!PDT: 1833
!!!AGN:
!!!SMS-siglum: PL-Wnifc
!!!SMS-shelfmark: 13846
!!!SMS-shelfwork: 001-049 G
!!!SMS-variant:
!!!SMS-altvar:
!!!NIFC-rismSourceID: 1001036701
!!!NIFC-rismChildID: 1001037040
!!!NIFC-islandoraID: nifc:210326
!!!URL-pdf-islandora: https://repozytorium.nifc.pl/islandora/object/nifc%3A210326/datastream/PDF/view
!!!URL-scan:
!!!IIIF:
!!!ONB-nifc:
!!!OMD: Moderato
!!!AIN: 1 piano 1 vox
!!!key: d
**kern	**kern	**kern	**text
*part2	*part2	*part1	*part1
*staff3	*staff2	*staff1	*staff1
*I"Fortepian	*I"Fortepian	*I"Głos	*
*Ipiano	*Ipiano	*Ivox	*
*ICklav	*ICklav	*ICvox	*
*IGacmp	*IGacmp	*IGsolo	*
*clefF4	*clefG2	*clefG2	*
*k[b-]	*k[b-]	*k[b-]	*
*d:	*d:	*d:	*
*M3/8	*M3/8	*M3/8	*
=1	=1	=1	=1
!	!	!LO:TX:a:t=D.b.Б.\n690.	!
4D\ 4F\ 4A\ 4d\	16.a\LL 16.aa\	16.aa\	Wy-
.	32gg\JJk	32gg\	-so-
.	8a\L 8ff\	8ff\	-ko
8D\ 8F\ 8A\ 8d\	8a\J 8aa\	8aa\	da-
=2	=2	=2	=2
*	*^	*	*
4D\ 4F\ 4A\ 4d\	16ff/LL	8a\ 8ff\	(16ff\LL	-le-
.	16ee/JJ	.	16ee\JJ)	.
.	4dd/	4a\ 4dd\	4dd\	-ko
8D\ 8F\ 8A\ 8d\	.	.	.	.
=3	=3	=3	=3	=3
4D\ 4F\ 4A\ 4d\	16cc#X/LL	8a\	16cc#X\	lis-
.	16dd/JJ	.	16dd\	-tek
.	(<16ff/LL	8a\ 8ff\	(16ff\LL	na
.	16ee/JJ)	.	16ee\JJ)	.
8D\ 8F\ 8A\ 8d\	8dd\	8ryy	8dd\	ja-
!!LO:LB:g=original
=4	=4	=4	=4	=4
4.D\ 4.F\ 4.A\ 4.d\	16ff/LL	8a\	(16ff\LL	-wo-
.	16gg#X/JJ	.	16gg#X\JJ)	.
.	4a\; 4aa\	4ryy	4aa\;	-rze,
*	*v	*v	*	*
=5	=5	=5	=5
4D\ 4A\ 4f\	16.a\LL 16.aa\	16.aa\	kto
.	32a\JJk 32ggn\	32ggn\	się
.	8a\ 8ff\	8ff\	wkim
8D\ 8A\ 8f\	8a\ 8aa\	8aa\	za
=6	=6	=6	=6
4D\ 4A\ 4f\	(16a\LL 16ff\	(16ff\LL	ko-
.	16a\JJ) 16ee\	16ee\JJ)	.
.	8a\ 8dd\	8dd\	-cha
8D\ 8A\ 8f\	8r	8r	.
!!LO:LB:g=original
=7	=7	=7	=7
*	*^	*	*
4D\ 4G\ 4A\ 4e\	(<16cc#X/LL	8a\	16cc#X\	do-
.	16dd/JJ	.	16dd\	-po-
.	8ee/L)	8ryy	8ee\	-móż
8D\ 8G\ 8A\ 8c#X\	8aa/J	8a\ 8ee\ 8aa\	8aa\	mu
=8	=8	=8	=8	=8
8D\ 8F\ 8A\ 8d\	(<16ff/LL	8a\	(16ff\LL	Bo-
.	16ee/JJ)	.	16ee\JJ)	.
8D\ 8F\ 8A\ 8d\	8dd/	8a\ 8dd\	8dd\	-że;
8r	8r	8ryy	8r	.
!!LO:PB:g=original
=9	=9	=9	=9	=9
4D\ 4G\ 4A\ 4e\	(<16cc#X/LL	4a\	16cc#X\	do-
.	16dd/JJ	.	16dd\	-po-
.	8ee/L)	.	8ee\	-móż
8D\ 8G\ 8A\ 8c#X\	8aa/J	8a\ 8ee\ 8aa\	8aa\	mu
=10	=10	=10	=10	=10
8D\ 8F\ 8A\ 8d\	(<16ff/LL	8a\ 8ff\	(16ff\LL	Bo-
.	16ee/JJ)	.	16ee\JJ)	.
4D\ 4F\ 4A\ 4d\	4dd/	4a\ 4dd\	4dd\	-że
*	*v	*v	*	*
!!LO:LB:g=original
==11	==11	==11	==11
8D\L 8F\ 8A\ 8d\	16a/LL	16a/	Wy-
.	16a/JJ 16cc#X/	16cc#X\	-so-
8D\ 8F\ 8A\ 8d\	8a/L 8dd/	8dd\	-ko
8D\J 8F\ 8A\ 8d\	8a/J 8ee/	8ee\	da-
=12	=12	=12	=12
*	*^	*	*
8D\ 8F\ 8A\ 8d\	(<16ff/LL	8a\ 8ff\	(16ff\LL	-le-
.	16ee/JJ)	.	16ee\JJ)	.
4D\ 4F\ 4A\ 4d\	8dd/	8a\ 8dd\	8dd\	-ko
.	8r	8ryy	8r	.
=13	=13	=13	=13	=13
4D\ 4G\ 4A\ 4e\	16cc#X/LL	8a\	16cc#X\	lis-
.	16dd/JJ	.	16dd\	-tek
.	16ff/LL	4a\ 4ff\	(16ff\LL	na
.	16ee/JJ	.	16ee\JJ)	.
8D\ 8F\ 8A\ 8d\	16dd/	.	8dd\	ka-
.	16ryy	.	.	.
!!LO:LB:g=original
=14	=14	=14	=14	=14
8D\ 8F\ 8A\ 8d\	(<16ff/LL	8a\ 8ff\	16ff\LL	-li-
.	16gg#X/JJ)	.	16gg#X\JJ	.
4D\;< 4A\ 4f\	4a/ 4aa/	4ryy	4aa\;	-nie,
*	*v	*v	*	*
=15	=15	=15	=15
4D\ 4A\ 4f\	16.a\LL 16.aa\	16.aa\	kto
.	32a\JJk 32ggn\	32ggn\	się
.	8a|>\L 8ff\	8ff\	szczé-
8D\ 8A\ 8f\	8a\J 8aa\	8aa\	-rze
=16	=16	=16	=16
*	*^	*	*
4D\ 4A\ 4f\	(<16ff/LL	8a\	(16ff\LL	ko-
.	16ee/JJ)	.	16ee\JJ)	.
.	8dd/	8a\ 8dd\	8dd\	-cha
8D\ 8A\ 8f\	8r	8ryy	8r	.
!!LO:LB:g=original
=17	=17	=17	=17	=17
4D\ 4G\ 4A\ 4e\	(<16cc/LL	8a\	16cc#X\	ni-
.	16dd/JJ)	.	16dd\	-gdy
.	8ee/L	8a\L 8ee\	8ee\	go
8D\ 8A\ 8c#X\	8aa/J	8a\J 8ee\ 8aa\	8aa\	nie
=18	=18	=18	=18	=18
4D\ 4F\ 4A\ 4d\	16ff/LL	8a\ 8ff\	(16ff\LL	mi-
.	16ee/JJ	.	16ee\JJ)	.
.	8dd/	8a\ 8dd\	8dd\	-nie;
8D\ 8F\ 8A\ 8d\	8r	8ryy	8r	.
=19	=19	=19	=19	=19
4D\ 4G\ 4A\ 4e\	16cc#X/LL	8a\ 8cc#\	16cc#X\	ni-
.	16dd/JJ	.	16dd\	-gdy
.	8ee/L	8a\L 8ee\	8ee\	go
8D\ 8G\ 8A\ 8c\	8aa/J	8a\J 8ee\	8aa\	nie
!!LO:LB:g=original
=20	=20	=20	=20	=20
8D\ 8F\ 8A\ 8d\	(<16ff/LL	8a\	(16ff\LL	mi-
.	16ee/JJ)	.	16ee\JJ)	.
4D\;< 4F\ 4A\ 4d\	4dd/;	4a\	4dd\;	-nie.
*	*v	*v	*	*
==	==	==	==
*-	*-	*-	*-
!!!system-decoration: s1,{(s2,s3)}
!!!RDF**kern: < = below
!!!RDF**kern: > = above
!!!RDF**kern: | = vertical stroke
!!!ENC: Marta Chmielewska
!!!END: 2021-11-10
!!!YEC: Copyright 2022 Narodowy Instytut Fryderyka Chopina (https://polishscores.org)
!!!YEM: License CC-BY-4.0 (https://creativecommons.org/licenses/by/4.0)
